X:1
T:Main Menu - Heroic March
C:AI Composer
M:4/4
L:1/8
Q:1/4=100
K:C
V:1 name="Melody"
|: "C"e2 g2 c'2 g2 | "Am"a2 e2 c2 A2 | "F"f2 a2 c'2 a2 | "G"g2 d2 B2 G2 |
   "C"e2 g2 c'2 e'2 | "Am"c'2 a2 e2 c2 | "F"f2 c2 "G"d2 B2 | "C"c4 c4 :|
|: "Em"g2 e2 b2 g2 | "F"a2 f2 c'2 a2 | "Dm"f2 d2 a2 f2 | "G"g2 b2 d'2 b2 |
   "C"c'2 g2 e2 c2 | "F"a2 f2 d2 f2 | "G"g2 e2 d2 B2 | "C"c4 c4 :|

